assets/apollographql/original.svg

<svg viewBox="0 0 128 128" xmlns="http://www.w3.org/2000/svg"><path d="m80.1135 89.2596h13.815l-22.0535-57.235h-15.2745l-22.0535 57.2349h13.816l3.604-9.695h20.8375l-3.772-10.728h-13.72l8.925-24.627zm45.556-42.3754c-.491-1.768-2.317-2.8064-4.0925-2.3134-1.7685.491-2.805 2.323-2.314 4.0915a57.3228 57.3228 0 0 1 2.089 15.338c0 31.624-25.728 57.351-57.352 57.351s-57.3515-25.727-57.3515-57.351c0-31.6247 25.7275-57.3521 57.3515-57.3521 13.3965 0 26.359 4.759 36.5895 13.228a7.9689 7.9689 0 0 0 -.619 3.0864c0 4.4175 3.581 7.9985 7.9985 7.9985s7.9985-3.581 7.9985-7.9985-3.581-7.9985-7.9985-7.9985c-.8505 0-1.669.1355-2.438.3815-11.52-9.8174-26.2745-15.3453-41.531-15.3453-35.2895 0-64 28.71-64 64 0 35.2895 28.7105 63.9995 64 63.9995s64-28.71 64-63.9995a63.975 63.975 0 0 0 -2.3305-17.116z" fill="#112b49"/></svg>

<svg xmlns="http://www.w3.org/2000/svg" viewBox="0 0 128 128"><path fill="#112b49" d="M80.114 89.26h13.814L71.876 32.025H56.601L34.546 89.26h13.816l3.604-9.696h20.838l-3.773-10.727h-13.72l8.925-24.627zm45.555-42.376a3.324 3.324 0 0 0-6.406 1.778A57.3 57.3 0 0 1 121.352 64c0 31.624-25.728 57.351-57.352 57.351S6.649 95.624 6.649 64.001C6.648 32.375 32.376 6.647 64 6.647c13.397 0 26.359 4.76 36.59 13.228a8 8 0 0 0-.62 3.087 7.998 7.998 0 1 0 5.561-7.617C94.011 5.528 79.256 0 64 0 28.71 0 0 28.71 0 64s28.71 64 64 64 64-28.71 64-64a64 64 0 0 0-2.33-17.116"/></svg>
